X:7831
T:Vandalls of Hammerwich
O:england
M:2/4
L:1/4
Q:60
C:Trad
S:MO
K:G
|:GBBB | GBBB | d2c2 |B< B3  A/2 | GBBB | GBBB | dcAF | [1 G4 :| [2 GABc
|]
|:d2 d2  | d <d3 d/2 |  egfe | eddd | dccc | cBB G/2B/2 | dcAF |G4 :|


